X: 23
T: Frost Is All Over, The
Z: tziguk
S: https://thesession.org/tunes/448#setting53428
R: jig
M: 6/8
L: 1/8
K: Dmaj
A|:def edB|AFD E2D|FAA AFA|Bee edB|
def edB|AFD E2D|FAA AFA|1Bdc d2A:|2Bdc d2e||
|:fdf afd|g3 bag|f3 afd|gfg e2g|
f3 afd|g3 bag|fga efg|1fdc d2e:|2fdc d2A||

